X:1494
T:Are You Willing?
R:reel
N:"collected from Fielding"
B:"O'Neill's Dance Music of Ireland, 1494"
T: an do'toile?.
Z:transcribed by John B. Walsh, 8/22/96
M:C|
L:1/8
K:A
A2 (EA) FAEA|AAcA BABc|A2 (EA) FAEA|faed cABc|
A2 (EA) FAEA|AAcA BABc|defg Tagae|fdBe cA A2||
agae Tfece|dBcA BAFA|Tagae fgae|fdBe cAAg|
aece fece|dBcA BAFA|A,CEA ceae|fdBe cA A2||


